X:1
T:Come Over on the Sunny Side
T:Come Over on the Sunny Side
T:A. A. Baldwin
T:A. A. Baldwin, 1898
T:Public Domain Courtesy of the Cyber Hymnal™
C:A. A. Baldwin
Z:Public Domain
Z:Courtesy of the Cyber Hymnal™
%%score ( 1 2 ) ( 3 4 )
L:1/8
Q:1/4=105
M:4/4
K:G
V:1 treble 
V:2 treble 
V:3 bass 
V:4 bass 
V:1
 DD | [B,G]2 [B,G]2 [CE]2 [B,D]2 | [B,G]2 [B,G]2 [DB]3 [Gd] | [Gd][Gd][GB][GB] G2 [GB]2 | %4
w: 1.~Is your|path a cloud- y,|drear- y way? Come|o- ver on the sun- ny|
w: 2.~Is your|life a gloom- y|vale of tears? Come|o- ver on the sun- ny|
w: 3.~Are you|seek- ing joy, and|peace, and rest? Come|o- ver on the sun- ny|
w: 4.~Do you|want the seeds of|love to grow? Come|o- ver on the sun- ny|
 [FA]6 [CD][CD] | [B,G]2 [B,G]2 [CE]2 [B,D]2 | [B,G]2 [B,G]2 [DB]3 [Gd] | %7
w: side, And the|Lord will bright- en|ev- ery day; Come|
w: side, And the|Lord will drive a-|way your fears; Come|
w: side; There is|com- fort for each|ach- ing breast; Come|
w: side; And the|fruits of sweet con-|tent- ment show? Come|
 [Gd][Gd][GB][GB] G2 [FA]2 | [DG]6 ||"^Refrain" [Bd]2 | [Bd]4 [GB]2 [ce]2 | [Bd]4 [GB]4 | %12
w: o- ver on the sun- ny|side.||||
w: o- ver on the sun- ny|side.|Come|o- ver, come|o- ver,|
w: o- ver on the sun- ny|side.||||
w: o- ver on the sun- ny|side.||||
 GGGG [Gd]2 [GB]2 | [FA]6 [CD][CD] | [B,G]2 [DG]2 [GB]2 [DG]2 | [DA]2 [GB]2 [Gc]2 [G^c]2 | %16
w: ||||
w: O- ver on the sun- ny|side; Here is|joy and glad- ness,|life and light; Come|
w: ||||
w: ||||
 [Gd][Gd][Gd][Gd] [GB] [FA]3 | [DG]6 |] %18
w: ||
w: o- ver on the sun- ny|side.|
w: ||
w: ||
V:2
 DD | x8 | x8 | x4 G2 x2 | x8 | x8 | x8 | x4 G2 x2 | x6 || x2 | x8 | x8 | GGGG x4 | x8 | x8 | x8 | %16
 x8 | x6 |] %18
V:3
 D,D, | [G,,D,]2 [G,,D,]2 [G,,G,]2 [G,,G,]2 | [G,,D,]2 [G,,D,]2 [G,,G,]3 [G,B,] | %3
w: ~ ~|~ ~ ~ ~|~ ~ ~ ~|
 [G,B,][G,B,][G,D][G,D] [B,D]2 [G,D]2 | [D,D]6 [D,F,][D,F,] | [G,,G,]2 [G,,G,]2 [G,,G,]2 [G,,G,]2 | %6
w: ~ ~ ~ ~ ~ ~|~ ~ ~|~ ~ ~ ~|
 [G,,D,]2 [G,,D,]2 [G,,G,]3 [G,B,] | [G,B,][G,B,][G,D][G,D] [D,B,]2 [D,C]2 | [G,,B,]6 || z2 | %10
w: ~ ~ ~ ~|~ ~ ~ ~ ~ ~|~||
 z2 [G,D]2 [G,D]2 [G,D]2 | z2 [G,D]2 [G,D]2 [G,D]2 | [B,D][B,D][B,D][B,D] [G,B,]2 [G,D]2 | %13
w: Come o- ver,|come o- ver,||
 [D,D]6 [D,F,][D,F,] | [G,,G,]2 [G,,B,]2 [G,D]2 [G,B,]2 | [F,C]2 [=F,D]2 [E,C]2 [_E,^A,]2 | %16
w: |||
 [D,B,][D,B,][D,B,][D,B,] [D,D] [D,C]3 | [G,,B,]6 |] %18
w: ||
V:4
 D,D, | x8 | x8 | x8 | x8 | x8 | x8 | x8 | x6 || x2 | x8 | x8 | x8 | x8 | x8 | x8 | x8 | x6 |] %18

